svg/restic.svg

<?xml version="1.0" encoding="UTF-8"?>
<svg xmlns="http://www.w3.org/2000/svg" xmlns:xlink="http://www.w3.org/1999/xlink" width="32" height="32" viewBox="0 0 32 32">
<path fill-rule="evenodd" fill="rgb(54.901961%, 19.215686%, 13.72549%)" fill-opacity="1" d="M 16 2.304688 L 31.054688 4.46875 L 31.054688 5.746094 C 31.054688 7.640625 24.3125 9.167969 15.996094 9.167969 C 7.675781 9.167969 0.941406 7.640625 0.941406 5.746094 L 0.941406 4.359375 Z M 16 11.503906 C 22.289062 11.503906 27.671875 10.632812 29.929688 9.390625 L 30.667969 8.179688 L 30.96875 7.082031 L 30.96875 8.445312 L 26.042969 28.777344 C 26.042969 30.042969 21.550781 31.058594 16.003906 31.058594 C 10.460938 31.058594 5.972656 30.042969 5.972656 28.777344 L 1.050781 8.445312 L 1.050781 7.109375 L 2.183594 9.433594 C 4.441406 10.652344 9.78125 11.503906 16 11.503906 M 16 11.503906 "/>
<path fill-rule="evenodd" fill="rgb(87.843137%, 32.156863%, 26.27451%)" fill-opacity="1" d="M 16 0.941406 C 24.320312 0.941406 31.058594 2.472656 31.058594 4.359375 C 31.058594 6.246094 24.3125 7.765625 16 7.765625 C 7.6875 7.765625 0.945312 6.253906 0.945312 4.359375 C 0.945312 2.464844 7.679688 0.941406 16 0.941406 M 16 10.140625 C 23.753906 10.140625 30.132812 8.816406 30.960938 7.101562 L 26.039062 27.4375 C 26.039062 28.703125 21.542969 29.71875 16 29.71875 C 10.457031 29.71875 5.964844 28.707031 5.964844 27.441406 L 1.039062 7.109375 C 1.871094 8.816406 8.253906 10.140625 16 10.140625 M 16 10.140625 "/>
<path fill-rule="evenodd" fill="rgb(100%, 100%, 100%)" fill-opacity="1" d="M 12.457031 12.085938 L 18.976562 12.085938 L 18.976562 18.351562 L 12.457031 18.351562 Z M 7.265625 23.648438 C 7.265625 21.9375 8.695312 20.5625 10.480469 20.5625 C 12.265625 20.5625 13.695312 21.9375 13.695312 23.648438 C 13.695312 25.359375 12.265625 26.738281 10.480469 26.738281 C 8.695312 26.738281 7.265625 25.359375 7.265625 23.648438 M 24 26.597656 L 17.5625 26.597656 L 20.78125 20.835938 L 24.003906 26.597656 Z M 24 26.597656 "/>
</svg>

<svg role="img" viewBox="0 0 32 32" height="32" width="32" xmlns="http://www.w3.org/2000/svg"><path d="m16 2.305 15.055 2.164v1.277c0 1.895-6.742 3.422-15.059 3.422C7.676 9.168.941 7.641.941 5.746V4.36Zm0 9.199c6.29 0 11.672-.871 13.93-2.113l.738-1.211.3-1.098v1.363l-4.925 20.332c0 1.266-4.492 2.282-10.04 2.282-5.542 0-10.03-1.016-10.03-2.282L1.05 8.445V7.11l1.133 2.325C4.44 10.652 9.78 11.504 16 11.504m0 0" fill="rgb(54.901961%, 19.215686%, 13.72549%)" fill-rule="evenodd"/><path d="M16 .941c8.32 0 15.059 1.532 15.059 3.418 0 1.887-6.747 3.407-15.059 3.407S.945 6.254.945 4.359C.945 2.465 7.68.941 16 .941m0 9.2c7.754 0 14.133-1.325 14.96-3.04l-4.92 20.337c0 1.265-4.497 2.28-10.04 2.28-5.543 0-10.035-1.011-10.035-2.277L1.039 7.11C1.871 8.816 8.254 10.141 16 10.141m0 0" fill="rgb(87.843137%, 32.156863%, 26.27451%)" fill-rule="evenodd"/><path d="M12.457 12.086h6.52v6.266h-6.52ZM7.266 23.648c0-1.71 1.43-3.085 3.214-3.085 1.786 0 3.215 1.375 3.215 3.085 0 1.711-1.43 3.09-3.215 3.09s-3.214-1.379-3.214-3.09M24 26.598h-6.437l3.218-5.762 3.223 5.762Zm0 0" fill="rgb(100%, 100%, 100%)" fill-rule="evenodd"/></svg>
